icons/outline/cpu-2.svg

<!--
category: Devices
tags: [processor, computer, chip, hardware, technology, electronic]
version: "1.59"
unicode: "f075"
-->
<svg
  xmlns="http://www.w3.org/2000/svg"
  width="24"
  height="24"
  viewBox="0 0 24 24"
  fill="none"
  stroke="currentColor"
  stroke-width="2"
  stroke-linecap="round"
  stroke-linejoin="round"
>
  <path d="M5 5m0 1a1 1 0 0 1 1 -1h12a1 1 0 0 1 1 1v12a1 1 0 0 1 -1 1h-12a1 1 0 0 1 -1 -1zm3 4v-2h2m6 6v2h-2m-4 0h-2v-2m8 -4v-2h-2m-11 2h2m-2 4h2m5 -11v2m4 -2v2m7 5h-2m2 4h-2m-5 7v-2m-4 2v-2" />
</svg>

<!--
category: Devices
tags: [processor, computer, chip, hardware, technology, electronic]
version: "1.59"
unicode: "f075"
-->
<svg
  xmlns="http://www.w3.org/2000/svg"
  width="24"
  height="24"
  viewBox="0 0 24 24"
  fill="none"
  stroke="currentColor"
  stroke-width="2"
  stroke-linecap="round"
  stroke-linejoin="round"
>
    <path d="M5 5m0 1a1 1 0 0 1 1 -1h12a1 1 0 0 1 1 1v12a1 1 0 0 1 -1 1h-12a1 1 0 0 1 -1 -1zM8 10v-2h2m6 6v2h-2m-4 0h-2v-2m8 -4v-2h-2M3 10h2M3 14h2M10 3v2M14 3v2M21 10h-2M21 14h-2M14 21v-2M10 21v-2" />
</svg>
